ui/StatusQ/src/assets/img/icons/tiny/double-checkmark.svg

<svg fill="none" height="17" viewBox="0 0 16 17" width="16" xmlns="http://www.w3.org/2000/svg"><g clip-rule="evenodd" fill="#000" fill-rule="evenodd"><path d="m2.76413 10.1901 5.56066-5.41122c.38197-.37171.99997-.37297 1.38632.00299.38369.37336.38569.97674.00307 1.34906l-6.25843 6.09017c-.18993.1849-.43822.2781-.68737.2789-.25655-.0019-.50554-.0937-.69254-.2756l-1.791608-1.7166c-.3801333-.3699-.3799398-.96985.006406-1.34581.383671-.37336 1.007992-.37115 1.382992-.00623z"/><path d="m8.76413 10.1901 5.56067-5.41122c.382-.37171 1-.37297 1.3863.00299.3837.37336.3857.97674.0031 1.34906l-6.25844 6.09017c-.18994.1849-.43823.2781-.68738.2789-.25655-.0019-.50554-.0937-.69254-.2756l-1.79161-1.7166 1.3894-1.35204z"/></g></svg>

<svg width="16" height="17" viewBox="0 0 16 17" fill="none" xmlns="http://www.w3.org/2000/svg">
<path fill-rule="evenodd" clip-rule="evenodd" d="M2.76413 10.1901L8.32479 4.77888C8.70676 4.40717 9.32476 4.40591 9.71111 4.78187C10.0948 5.15523 10.0968 5.75861 9.71418 6.13093L3.45575 12.2211C3.26582 12.406 3.01753 12.4992 2.76838 12.5C2.51183 12.4981 2.26284 12.4063 2.07584 12.2244L0.284232 10.5078C-0.0959013 10.1379 -0.0957078 9.53795 0.290638 9.16199C0.674309 8.78863 1.29863 8.79084 1.67363 9.15576L2.76413 10.1901Z" fill="black"/>
<path fill-rule="evenodd" clip-rule="evenodd" d="M8.76413 10.1901L14.3248 4.77888C14.7068 4.40717 15.3248 4.40591 15.7111 4.78187C16.0948 5.15523 16.0968 5.75861 15.7142 6.13093L9.45576 12.2211C9.26582 12.406 9.01753 12.4992 8.76838 12.5C8.51183 12.4981 8.26284 12.4063 8.07584 12.2244L6.28423 10.5078L7.67363 9.15576L8.76413 10.1901Z" fill="black"/>
</svg>
